svg/contact/phone_success_line.svg

<?xml version="1.0" encoding="UTF-8"?>
<svg width="24px" height="24px" viewBox="0 0 24 24" version="1.1" xmlns="http://www.w3.org/2000/svg" xmlns:xlink="http://www.w3.org/1999/xlink">
    <title>phone_success_line</title>
    <g id="页面-1" stroke="none" stroke-width="1" fill="none" fill-rule="evenodd">
        <g id="Contact" transform="translate(-720.000000, 0.000000)">
            <g id="phone_success_line" transform="translate(720.000000, 0.000000)">
                 <path d="M24,0 L24,24 L0,24 L0,0 L24,0 Z M12.5934901,23.257841 L12.5819402,23.2595131 L12.5108777,23.2950439 L12.4918791,23.2987469 L12.4918791,23.2987469 L12.4767152,23.2950439 L12.4056548,23.2595131 C12.3958229,23.2563662 12.3870493,23.2590235 12.3821421,23.2649074 L12.3780323,23.275831 L12.360941,23.7031097 L12.3658947,23.7234994 L12.3769048,23.7357139 L12.4804777,23.8096931 L12.4953491,23.8136134 L12.4953491,23.8136134 L12.5071152,23.8096931 L12.6106902,23.7357139 L12.6232938,23.7196733 L12.6232938,23.7196733 L12.6266527,23.7031097 L12.609561,23.275831 C12.6075724,23.2657013 12.6010112,23.2592993 12.5934901,23.257841 L12.5934901,23.257841 Z M12.8583906,23.1452862 L12.8445485,23.1473072 L12.6598443,23.2396597 L12.6498822,23.2499052 L12.6498822,23.2499052 L12.6471943,23.2611114 L12.6650943,23.6906389 L12.6699349,23.7034178 L12.6699349,23.7034178 L12.678386,23.7104931 L12.8793402,23.8032389 C12.8914285,23.8068999 12.9022333,23.8029875 12.9078286,23.7952264 L12.9118235,23.7811639 L12.8776777,23.1665331 C12.8752882,23.1545897 12.8674102,23.1470016 12.8583906,23.1452862 L12.8583906,23.1452862 Z M12.1430473,23.1473072 C12.1332178,23.1423925 12.1221763,23.1452606 12.1156365,23.1525954 L12.1099173,23.1665331 L12.0757714,23.7811639 C12.0751323,23.7926639 12.0828099,23.8018602 12.0926481,23.8045676 L12.108256,23.8032389 L12.3092106,23.7104931 L12.3186497,23.7024347 L12.3186497,23.7024347 L12.3225043,23.6906389 L12.340401,23.2611114 L12.337245,23.2485176 L12.337245,23.2485176 L12.3277531,23.2396597 L12.1430473,23.1473072 Z" id="MingCute" fill-rule="nonzero"></path>
                <path d="M6.85728,2.44483 C8.12042571,3.36621357 9.07582398,4.66114143 9.88931623,5.8489984 L10.5266,6.78724 L10.5266,6.78724 C10.9324,7.38031 10.8654,8.18484 10.3502,8.70006 L8.99378,10.0564 L9.13735723,10.3598745 C9.48709756,11.0688933 10.090754,12.09078 11,13 C11.6994,13.6994 12.4654667,14.218 13.1044815,14.5792963 L13.4710944,14.7773856 L13.4710944,14.7773856 L13.7979164,14.9388498 C13.8485542,14.9627711 13.8971467,14.9852133 13.9435,15.0062 L15.2993,13.6505 C15.8149,13.1348 16.6229,13.0668 17.2173,13.4787 L18.231355,14.1816565 C19.3829527,14.9918509 20.5856154,15.9152769 21.521,17.1132 C21.8626,17.5506 21.9133,18.1227 21.7096,18.5981 C20.8728,20.5506 18.7552,22.2135 16.5524,22.1324 L16.2518759,22.1157001 L16.2518759,22.1157001 L16.0189256,22.0956065 L16.0189256,22.0956065 L15.7611336,22.0667244 L15.7611336,22.0667244 L15.4795621,22.0276651 L15.4795621,22.0276651 L15.1752731,21.97704 L15.1752731,21.97704 L14.8493287,21.9134603 L14.8493287,21.9134603 L14.5027909,21.8355372 L14.5027909,21.8355372 L14.136722,21.7418821 L14.136722,21.7418821 L13.7521839,21.6311063 L13.7521839,21.6311063 L13.3502388,21.501821 C11.5039131,20.8763078 9.16110938,19.6463875 6.75735,17.2426 C4.35356813,14.8388125 3.12365344,12.4960155 2.49813876,10.6497099 L2.36885301,10.2477694 L2.36885301,10.2477694 L2.25807648,9.86323645 L2.25807648,9.86323645 L2.16442042,9.49717293 L2.16442042,9.49717293 L2.08649611,9.1506409 C2.06298899,9.03850349 2.04187237,8.92979832 2.02291481,8.82470242 L1.97228778,8.52041951 L1.97228778,8.52041951 L1.93322631,8.23885422 L1.93322631,8.23885422 L1.90434165,7.98106857 L1.90434165,7.98106857 L1.88424507,7.7481246 L1.88424507,7.7481246 L1.86754,7.44761 L1.86754,7.44761 C1.78675,5.25215 3.46855,3.11896 5.41215,2.28599 C5.86822,2.09053 6.4206,2.1263 6.85728,2.44483 Z M5.92868,4.25314 C4.85727,4.81363 3.81907,6.09364 3.86619,7.37406 L3.88690774,7.70247318 L3.88690774,7.70247318 L3.90752649,7.90675128 L3.90752649,7.90675128 L3.93698539,8.13627463 L3.93698539,8.13627463 L3.97678462,8.38994141 L3.97678462,8.38994141 L4.02842437,8.66664981 L4.02842437,8.66664981 L4.0934048,8.96529801 L4.0934048,8.96529801 L4.17322609,9.28478419 L4.17322609,9.28478419 L4.26938843,9.62400655 L4.26938843,9.62400655 L4.38339199,9.98186325 C4.4245334,10.1041321 4.46889837,10.2293231 4.51673694,10.3572525 L4.67092347,10.7490725 L4.67092347,10.7490725 L4.84745175,11.1562213 C5.47478248,12.5377081 6.4994787,14.156313 8.17157,15.8284 C9.84367,17.500487 11.4622861,18.5251826 12.8437764,19.1525157 L13.2509261,19.3290448 L13.2509261,19.3290448 L13.6427464,19.4832323 C13.7706758,19.5310712 13.8958667,19.5754366 14.0181354,19.6165784 L14.3759913,19.7305833 L14.3759913,19.7305833 L14.7152123,19.8267471 L14.7152123,19.8267471 L15.0346965,19.90657 L15.0346965,19.90657 L15.3333421,19.9715522 L15.3333421,19.9715522 L15.6100471,20.0231939 L15.6100471,20.0231939 L15.8637098,20.0629951 L15.8637098,20.0629951 L16.0932283,20.0924562 L16.0932283,20.0924562 L16.2975007,20.1130773 L16.2975007,20.1130773 L16.6259,20.1338 L16.6259,20.1338 C17.8904,20.1803 19.1802,19.1482 19.7377,18.0905 C19.02594,17.2553 18.14202,16.569988 17.1667848,15.879684 L16.4195,15.3586 L16.4195,15.3586 L16.2287129,15.5576071 L16.2287129,15.5576071 L15.8234859,16.0007156 L15.8234859,16.0007156 L15.6081259,16.2272519 C15.0218889,16.8240667 14.3384667,17.3314 13.5186,16.9998 L13.2922176,16.9049976 L13.2922176,16.9049976 L13.0163466,16.7812667 C12.9666028,16.7581762 12.915066,16.733837 12.8618707,16.7082272 L12.5238733,16.5391481 L12.5238733,16.5391481 L12.1525296,16.3385335 C11.3808004,15.9050735 10.4477343,15.2761429 9.58578,14.4142 C8.72384857,13.5522571 8.09490653,12.6191959 7.66143271,11.8474688 L7.46081111,11.4761259 L7.46081111,11.4761259 L7.29172529,11.1381291 L7.29172529,11.1381291 L7.09494623,10.7077823 L7.09494623,10.7077823 L7.00014,10.4814 L7.00014,10.4814 C6.68900875,9.71211875 7.11663531,9.06250937 7.66393766,8.50065293 L7.88777385,8.28051485 L7.88777385,8.28051485 L8.44543204,7.76814191 L8.44543204,7.76814191 L8.64461,7.57719 L8.64461,7.57719 L8.17202561,6.88477279 C7.4693238,5.86571388 6.78116,4.94448727 5.92868,4.25314 Z M20.8885,3.7342 C21.279,4.12473 21.279,4.75789 20.8885,5.14842 L16.8226,9.21428 C16.3345,9.70244 15.543,9.70244 15.0549,9.21428 L13.1103,7.26974 C12.7198,6.87921 12.7198,6.24605 13.1103,5.85552 C13.5009,5.465 14.134,5.465 14.5245,5.85552 L15.9388,7.26974 L19.4743,3.7342 C19.8648,3.34368 20.498,3.34368 20.8885,3.7342 Z" id="形状" fill="#09244B"></path>
            </g>
        </g>
    </g>
</svg>

<svg xmlns="http://www.w3.org/2000/svg" width="24" height="24"><g fill="none" fill-rule="evenodd"><path d="M24 0v24H0V0h24ZM12.593 23.258l-.011.002-.071.035-.02.004-.014-.004-.071-.035c-.01-.004-.019-.001-.024.005l-.004.01-.017.428.005.02.01.013.104.074.015.004.012-.004.104-.074.012-.016.004-.017-.017-.427c-.002-.01-.009-.017-.017-.018Zm.265-.113-.013.002-.185.093-.01.01-.003.011.018.43.005.012.008.007.201.093c.012.004.023 0 .029-.008l.004-.014-.034-.614c-.003-.012-.01-.02-.02-.022Zm-.715.002a.023.023 0 0 0-.027.006l-.006.014-.034.614c0 .012.007.02.017.024l.015-.002.201-.093.01-.008.004-.011.017-.43-.003-.012-.01-.01-.184-.092Z"/><path fill="#09244B" d="M6.857 2.445C8.12 3.366 9.076 4.66 9.89 5.849l.638.938A1.504 1.504 0 0 1 10.35 8.7l-1.356 1.356.143.304c.35.709.954 1.73 1.863 2.64.7.7 1.465 1.218 2.104 1.58l.367.197.327.162.146.067 1.355-1.356a1.502 1.502 0 0 1 1.918-.171l1.014.703c1.152.81 2.355 1.733 3.29 2.931a1.47 1.47 0 0 1 .189 1.485c-.837 1.953-2.955 3.616-5.158 3.534l-.3-.016-.233-.02-.258-.03-.281-.038-.305-.051-.326-.064-.346-.077-.366-.094-.385-.11-.402-.13c-1.846-.626-4.189-1.856-6.593-4.26-2.403-2.403-3.633-4.746-4.259-6.592l-.13-.402-.11-.385-.094-.366-.078-.346a11.79 11.79 0 0 1-.063-.326l-.05-.305-.04-.281-.029-.258-.02-.233-.016-.3c-.081-2.196 1.6-4.329 3.544-5.162a1.47 1.47 0 0 1 1.445.159ZM5.93 4.253c-1.072.56-2.11 1.84-2.063 3.121l.02.328.022.205.029.23.04.253.051.277.065.298.08.32.096.339.114.358c.042.122.086.247.134.375l.154.392.176.407c.628 1.382 1.652 3 3.325 4.672 1.672 1.672 3.29 2.697 4.672 3.325l.407.176.392.154c.128.048.253.092.375.134l.358.114.34.096.319.08.298.065.277.051.254.04.23.03.204.02.328.02c1.264.047 2.554-.985 3.112-2.043-.712-.835-1.596-1.52-2.571-2.21l-.748-.521-.19.199-.406.443-.215.226c-.586.597-1.27 1.104-2.09.773l-.226-.095-.276-.124-.154-.073-.338-.169-.371-.2a11.866 11.866 0 0 1-2.567-1.925 11.867 11.867 0 0 1-1.925-2.567l-.2-.37-.17-.339-.196-.43L7 10.48c-.311-.769.117-1.418.664-1.98l.224-.22.557-.513.2-.19-.473-.693c-.703-1.02-1.39-1.94-2.243-2.632Zm14.96-.519a1 1 0 0 1 0 1.414l-4.066 4.066a1.25 1.25 0 0 1-1.768 0L13.11 7.27a1 1 0 0 1 1.415-1.414l1.414 1.414 3.535-3.536a1 1 0 0 1 1.415 0Z"/></g></svg>
